X: 35099
T: Rolling Waves, The
R: jig
M: 6/8
K: Dmixolydian
|:FEF DED|D2d cAG|FEF DED|A2F GFE|
FEF DED|D2d cAG|FAF GBG|A2F GFE:|
D2d cAd|cAd cAG|F2d cAG|A2F GFE|
D2d cAd|fed cAG|FAF GBG|A2F GFE:|

